X: 1
T: Cabin in Caroline
C:
O:
%D:
R: song; reel
S: Fiddle Hell Online 2022-4-6 handout for Darol Anger workshop
Z: 2022 John Chambers <jc:trillian.mit.edu>
M: 4/4
L: 1/8
K: G
z2 v.[D2G,2] v.[E2G,2] v.F2 ||\
"G"v(GFG)A Bc(d2 | [g4-d4-] [gd])(.^AB)=A | "C"GC2(D E)(FG)D | J[G4-D4-] [G2D2]u(DC) |
(B,C)DE G(^AB)d | vB(GEG) "D"DFAF | "G"G2(^A2 B)(dfa) | g2(e.=f e)d(^AB | A)(GED) (^A,B,)[A2 | G,4 z4 |]
